commands/search-emojis/icon.monochrome.svg

<svg width="20" height="20" viewBox="0 0 20 20" fill="none" xmlns="http://www.w3.org/2000/svg">
<path d="M10.5 20H2C1.46957 20 0.960859 19.7893 0.585786 19.4142C0.210714 19.0391 0 18.5304 0 18V6.00001C0 4.90001 0.9 4.00001 2 4.00001H3V3.00001L5.03 2.60001C5.1319 1.8849 5.48839 1.23057 6.03399 0.757198C6.57959 0.283829 7.27767 0.0232086 8 0.0232086C8.72233 0.0232086 9.42041 0.283829 9.96601 0.757198C10.5116 1.23057 10.8681 1.8849 10.97 2.60001L13 3.00001V4.00001H14C14.5304 4.00001 15.0391 4.21072 15.4142 4.58579C15.7893 4.96087 16 5.46957 16 6.00001V7.00001H14V6.00001H13V7.00001H3V6.00001H2V18H7V20H10.5ZM8 4.00001C8.26522 4.00001 8.51957 3.89465 8.70711 3.70711C8.89464 3.51958 9 3.26522 9 3.00001C9 2.73479 8.89464 2.48044 8.70711 2.2929C8.51957 2.10536 8.26522 2.00001 8 2.00001C7.73478 2.00001 7.48043 2.10536 7.29289 2.2929C7.10536 2.48044 7 2.73479 7 3.00001C7 3.26522 7.10536 3.51958 7.29289 3.70711C7.48043 3.89465 7.73478 4.00001 8 4.00001ZM10 8.00001H18C18.5304 8.00001 19.0391 8.21072 19.4142 8.58579C19.7893 8.96087 20 9.46957 20 10V18C20 18.5304 19.7893 19.0391 19.4142 19.4142C19.0391 19.7893 18.5304 20 18 20H10C9.46957 20 8.96086 19.7893 8.58579 19.4142C8.21071 19.0391 8 18.5304 8 18V10C8 8.90001 8.9 8.00001 10 8.00001ZM10 10V18H18V10H10Z" fill="#000"/>
</svg>

<svg viewBox="0 0 20 20" xmlns="http://www.w3.org/2000/svg"><path d="M10.5 20H2a2 2 0 0 1-2-2V6c0-1.1.9-2 2-2h1V3l2.03-.4a3 3 0 0 1 5.94 0L13 3v1h1a2 2 0 0 1 2 2v1h-2V6h-1v1H3V6H2v12h5v2h3.5zM8 4a1 1 0 1 0 0-2 1 1 0 0 0 0 2zm2 4h8a2 2 0 0 1 2 2v8a2 2 0 0 1-2 2h-8a2 2 0 0 1-2-2v-8c0-1.1.9-2 2-2zm0 2v8h8v-8h-8z"/></svg>
